src/DGGeoclicker/skin/basic/img/DGPreloader__preloaderSmallInner.svg

<svg xmlns="http://www.w3.org/2000/svg" width="12" height="12"><path fill="#A6CD2A" d="M3.141 6.86c-.082-.274-.141-.559-.141-.86 0-1.657 1.343-3 3-3s3 1.343 3 3c0 .301-.059.586-.141.86l2.26 2.259c.555-.91.881-1.975.881-3.119 0-3.314-2.686-6-6-6s-6 2.686-6 6c0 1.144.326 2.209.881 3.119l2.26-2.259z"/><path fill="#0DA5D5" d="M6 12c1.657 0 3.157-.672 4.243-1.757l-2.121-2.121c-.544.542-1.294.878-2.122.878s-1.578-.336-2.121-.879l-2.121 2.121c1.085 1.086 2.585 1.758 4.242 1.758z"/></svg>

<svg xmlns="http://www.w3.org/2000/svg" width="12" height="12">
    <path d="M 3.141,6.86 C 3.059,6.586 3,6.301 3,6 3,4.343 4.343,3 6,3 7.657,3 9,4.343 9,6 9,6.301 8.941,6.586 8.859,6.86 l 2.26,2.259 C 11.674,8.209 12,7.144 12,6 12,2.686 9.314,0 6,0 2.686,0 0,2.686 0,6 0,7.144 0.326,8.209 0.881,9.119 L 3.141,6.86 z" fill="#a6cd2a"/>
    <path d="m 6,12 c 1.657,0 3.157,-0.672 4.243,-1.757 L 8.122,8.122 C 7.578,8.664 6.828,9 6,9 5.172,9 4.422,8.664 3.879,8.121 L 1.758,10.242 C 2.843,11.328 4.343,12 6,12 z" fill="#0da5d5"/>
</svg>
